Yosa-Max/actions/22x22/bookmark-new-list.svg

<?xml version="1.0" encoding="UTF-8"?>
<svg id="svg4359" version="1.1" viewBox="0 0 22 22" xmlns="http://www.w3.org/2000/svg">
 <g id="layer1" transform="translate(0,-26)">
  <path id="rect4158" d="m6 29v16h0.00586l0.8320306-0.501953 1.1621094-0.697266v-0.0059l3-1.810547 3 1.810547v0.0059l1.162109 0.697266 0.832032 0.501953h0.005859v-16zm2 2h6v10.460938l-3-1.810547-3 1.810547v-4.460938z" style="fill:#4d4d4d"/>
 </g>
</svg>

<?xml version="1.0" encoding="UTF-8" standalone="no"?>
<svg
   xmlns:dc="http://purl.org/dc/elements/1.1/"
   xmlns:cc="http://creativecommons.org/ns#"
   xmlns:rdf="http://www.w3.org/1999/02/22-rdf-syntax-ns#"
   xmlns:svg="http://www.w3.org/2000/svg"
   xmlns="http://www.w3.org/2000/svg"
   version="1.1"
   id="svg4359"
   height="22"
   width="22">
  <defs
     id="defs4361" />
  <metadata
     id="metadata4364">
    <rdf:RDF>
      <cc:Work
         rdf:about="">
        <dc:format>image/svg+xml</dc:format>
        <dc:type
           rdf:resource="http://purl.org/dc/dcmitype/StillImage" />
        <dc:title></dc:title>
      </cc:Work>
    </rdf:RDF>
  </metadata>
  <g
     transform="translate(0,-26)"
     id="layer1">
    <path
       id="rect4158"
       d="m 6,29 v 2 6 8 H 6.00586 L 6.8378906,44.498047 8,43.800781 v -0.0059 l 3,-1.810547 3,1.810547 v 0.0059 L 15.162109,44.498047 15.994141,45 H 16 v -8 -6 -2 z m 2,2 h 6 v 6 4.460938 L 11,39.650391 8,41.460938 V 37 Z"
       style="opacity:1;fill:#4d4d4d;fill-opacity:1;stroke:none;stroke-width:0.1;stroke-linecap:round;stroke-linejoin:miter;stroke-miterlimit:4;stroke-dasharray:none;stroke-opacity:0.29943501" />
  </g>
</svg>
